!!!COM: Bach, Johann Sebastian
!!!OTL@@DE: 262. Ach Gott, vom Himmel sieh' darein
!!!OTL@EN: Ah, God, from heaven look therin and be merciful
!!!SCA: BWV 2.6
**kern	**kern	**kern	**kern
*staff2	*staff2	*staff1	*staff1
*Iorgan	*Iorgan	*Iorgan	*Iorgan
*>[A,A,B]	*>[A,A,B]	*>[A,A,B]	*>[A,A,B]
*>norep[A,B]	*>norep[A,B]	*>norep[A,B]	*>norep[A,B]
*>A	*>A	*>A	*>A
!bass	!tenor	!alto	!sprno
*clefF4	*clefF4	*clefG2	*clefG2
*k[b-]	*k[b-]	*k[b-]	*k[b-]
*met(C)	*met(C)	*met(C)	*met(C)
*M4/4	*M4/4	*M4/4	*M4/4
*MM80	*MM80	*MM80	*MM80
4D\	4d/	4f#\	4a/
=1	=1	=1	=1
4G\	4d/	4g\	4b-/
4A\	4c/	4f#\	4a/
4B-\	4d/	4g\	4g/
8A\L	4g/	4b-\	4dd/
8G\J	.	.	.
=2	=2	=2	=2
4F#\	4d/	4a\	8dd/L
.	.	.	8cc/J
4G\	4d/	4g\	4b-/
4D;\	4d;/	4f#;\	4a;/
4C\	4e-/	4a-\	4cc/
=3	=3	=3	=3
4C#\	4en/	4g\	4b-/
4D\	8d/L	4f#\	4a/
.	8c/J	.	.
4En\	4B-/	4c#\	4g/
4F#\	4A/	4d\	4ccn/
=4	=4	=4	=4
4G\	4G/	2d\	4b-/
4D\	8F#/L	.	4a/
.	16G/L	.	.
.	16c/JJ	.	.
4GG;\	4B-;/	4d;\	4g;/
=:|!	=:|!	=:|!	=:|!
*>B	*>B	*>B	*>B
4G\	4B-/	4d\	4g/
=5	=5	=5	=5
4C#\	4A/	4e\	4a/
4D\	4A/	4d\	4f/
8A\L	4A/	4c#\	4e/
8G\J	.	.	.
8F\L	4A/	4d\	8d/L
8E\J	.	.	8e/J
=6	=6	=6	=6
!!linebreak: 2
8D\L	4A/	4d\	4f/
8C\J	.	.	.
4BB-\	4d/	4d\	4g/
4AA;\	4c#;/	4e;\	4a;/
4D\	4A/	8d\L	4f/
.	.	8c\J	.
=7	=7	=7	=7
4E-\	4G/	8B-\L	8g/L
.	.	8c\J	8a/J
8D\L	8F/L	4d\	4b-/
8En\J	8G/J	.	.
8F\L	8A/L	4c\	4a/
8E-\J	8G/J	.	.
8D\L	4F#/	4d\	4b-/
8C\J	.	.	.
=8	=8	=8	=8
8BB-\L	8G/L	8d\L	4g/
8C\J	8c/J	8e-\J	.
4D\	4A/	4d\	4f#/
4GG;\	4B-;/	4d;\	4g;/
4G\	4B-/	4d\	4g/
=9	=9	=9	=9
4F#\	4A/	4d\	4dd/
8G\L	4G/	4d\	4b-/
8Fn\J	.	.	.
8E-\L	4G/	4e-\	4cc/
8D\J	.	.	.
8C\L	4G/	4f\	4dd/
8BBn\J	.	.	.
=10	=10	=10	=10
4C\	[2G/	4e-\	4cc/
4GG\	.	4d\	4b-/
2AA\	8G/L]	8c#\	2a/
.	8F/J	4d\	.
.	4En/	.	.
.	.	8c#\	.
=11	=11	=11	=11
2.D;\	2.F#;/	2.d;\	2.a;/
==	==	==	==
*-	*-	*-	*-
!!!ENC: Craig Stuart Sapp
!!!END: 2004/12/06/
!!chor2scor: -l 2 -s 0.6 -o %b.pmx
